modules/hawcons-filled/icons/lock-rounded.svg

<?xml version="1.0" encoding="UTF-8" standalone="no"?>
<svg width="32px" height="32px" viewBox="0 0 32 32" version="1.1" xmlns="http://www.w3.org/2000/svg" xmlns:xlink="http://www.w3.org/1999/xlink" xmlns:sketch="http://www.bohemiancoding.com/sketch/ns">
    <!-- Generator: Sketch 3.0.3 (7891) - http://www.bohemiancoding.com/sketch -->
    <title>icon 118 lock rounded</title>
    <desc>Created with Sketch.</desc>
    <defs></defs>
    <g id="Page-1" stroke="none" stroke-width="1" fill="none" fill-rule="evenodd" sketch:type="MSPage">
        <g id="icon-118-lock-rounded" sketch:type="MSArtboardGroup" fill="#929292">
            <path d="M16,21.9146472 L16,24.5089948 C16,24.7801695 16.2319336,25 16.5,25 C16.7761424,25 17,24.7721195 17,24.5089948 L17,21.9146472 C17.5825962,21.708729 18,21.1531095 18,20.5 C18,19.6715728 17.3284272,19 16.5,19 C15.6715728,19 15,19.6715728 15,20.5 C15,21.1531095 15.4174038,21.708729 16,21.9146472 L16,21.9146472 Z M9,14.0000125 L9,10.499235 C9,6.35670485 12.3578644,3 16.5,3 C20.6337072,3 24,6.35752188 24,10.499235 L24,14.0000125 C25.6591471,14.0047488 27,15.3503174 27,17.0094776 L27,22 C27,26.4092877 23.4186782,30 19.0008939,30 L13.9991061,30 C9.58616771,30 6,26.418278 6,22 L6,17.0094776 C6,15.339581 7.34233349,14.0047152 9,14.0000125 L9,14.0000125 L9,14.0000125 Z M12,14 L12,10.5008537 C12,8.0092478 14.0147186,6 16.5,6 C18.9802243,6 21,8.01510082 21,10.5008537 L21,14 L12,14 L12,14 L12,14 Z" id="lock-rounded" sketch:type="MSShapeGroup"></path>
        </g>
    </g>
</svg>

<svg width="32" height="32" viewBox="0 0 32 32" xmlns="http://www.w3.org/2000/svg"><path d="M16 21.915v2.594a.5.5 0 0 0 1 0v-2.594a1.5 1.5 0 1 0-1 0zM9 14v-3.5a7.5 7.5 0 1 1 15 0V14c1.66.005 3 1.35 3 3.01V22c0 4.41-3.581 8-8 8h-5c-4.414 0-8-3.582-8-8v-4.99A3.002 3.002 0 0 1 9 14zm3 0v-3.5C12 8.01 14.015 6 16.5 6c2.48 0 4.5 2.015 4.5 4.5V14h-9z" fill="#929292" fill-rule="evenodd"/></svg>
